X:59
T:Keel Row, The
C:arr. Carlo Minasi
M:2/4
L:1/8
B:Chappell's One Hundred Scotch Melodies
B:Arranged for the Concertina by Carlo Minasi
Q:"Allegretto  "1/4=140
Z:Peter Dunk 2012
K:G
!p!c|(B<G) (G>B)|L(c2 A)>c|\
L(B2 G)>B|L(A<F) D3/ c/|(B<G) (G>B)|
L(c2 A)>c|L(B>G) (B/A/G/F/)|G3!mf!||\
d|([BG]<d) ([dB]<g)|L([e2c2] [dB])>[cA]|L([B2G2] G)>B|
L([AFD]<F) D3/ c/|([BG]<d) [dB]>g|\
([e2c2] [dB]>[cA])|L9[BG]>G (B/A/G/F/)|G3||

